X:1
T:Vals nº 9 D. 969
T:Vals nº 9 D. 969
T:Franz Schubert
C:Franz Schubert
%%score { 1 | 2 }
L:1/8
Q:1/4=160
M:3/4
K:C
V:1 treble nm="Piano" snm="Pno."
V:2 bass 
V:1
 [A,A]2 | [Cc]3 [B,B] [B,B][A,A] | [A,A]2 [A,A]2 [A,A]2 | [FAcf]2 [FAcf]2 [FAcf]2 | %4
 [EGce]4 [Ece]2 | [Fce]3 [FBd] [FBd][FAc] | [EAc]2 [EAc]2 [EAc]2 | [E^GB]2 [EGB][EAc] [EGB]2 | %8
 [CEA]4 [A,A]2 | [Cc]3 [B,B] [B,B][A,A] | [A,A]2 [A,A]2 [A,A]2 | [Acfa]2 [Acfa]2 [Acfa]2 | %12
 [Gceg]4 [Geg]2 | [Geg]3 [Fdf] [Fdf][Ece] | [Ece]2 [EAce]2 [EAce]2 | %15
 [^GBe^g]2 [GBeg][GBeg] [GBeg]2 | [Acea]4!ff! [Aa]2 | [cc']3 [Bb] [Bb][Aa] | [^D^d]2 [Dd]2 [Dd]2 | %19
 [cc']3 [Bb] [Bb][Aa] | [Ff]2 [Ff]2 [Ff]2 |!p! [cc']3 [Bb] [Bb][Aa] | [Gg]2 [Gg]2 [Gg]2 | %23
!<(! [ff']2 [ff']2 [ff']2!<)! | [ee']4!f! [debd']2 |!ff! [ceac']3 [Bb] [Bb][Aa] | %26
 [dd']2 [dd']2 [dd']2 | [e^gbe']2 [egbe']2 [egbe']2 | [ac'e'a']4 E2 | [de]/E/ z [DE][DF] [DE]2 | %30
 [ce]/E/ z [CE][CF] [CE]2 | [DEB]2 [DEB]2 [DEB]2 | [CEc]4 E2 | [de]/E/ z [DE][DF] [DE]2 | %34
 [ce]/E/ z [CE][CF] [CE]2 | [DEB]2 [DEB][DEA] [DE^G]2 | [CEA]4 z2 |] %37
V:2
!ff! [A,,,A,,]2 | [C,,C,]3 [B,,,B,,] [B,,,B,,][A,,,A,,] | [A,,,A,,]2 [A,,,A,,]2 [A,,,A,,]2 | %3
 [F,,,F,,]2 [A,,,A,,]2 [F,,,F,,]2 | [C,,C,]4!p! [E,G,C]2 | [D,,D,]2 [D,F,B,]4 | %6
 [E,,E,]2 [E,A,C]2 [E,A,C]2 | [E,,E,]2 [E,B,D]2 [E,B,D]2 | [A,,E,A,]4!ff! [A,,,A,,]2 | %9
 [C,,C,]3 [B,,,B,,] [B,,,B,,][A,,,A,,] | [A,,,A,,]2 [A,,,A,,]2 [A,,,A,,]2 | %11
 [F,,,F,,]2 [A,,,A,,]2 [F,,,F,,]2 | [C,,C,]4!p! [E,G,C]2 | [D,,D,]2 [D,F,B,]4 | %14
 [E,,E,]2 [E,A,C]2 [E,A,C]2 | [F,,E,]2 [E,B,D]2 [E,B,D]2 | A,,2 [E,A,C]2 z2 | [D,,D,]2 [D,A,C]4 | %18
 [^D,,^D,]2 [D,A,C]4 | [E,,E,]2 [E,A,C]4 | [F,,F,]2 [F,A,C]4 | [^F,,^F,]2 [F,C_E]4 | %22
 [G,,G,]2 [G,C=E]4 | [G,,G,]2 [G,B,DF]2 [G,B,DF]2 | [^G,B,DE]4 [^G,,,^G,,]2 | %25
 [A,,,E,,A,,]3 [B,,,B,,] [B,,,B,,][C,,C,] | [D,,D,]2 [D,,D,]2 [D,,D,]2 | %27
 [E,,^G,,B,,E,]2 [E,,G,,B,,E,]2 [E,,G,,B,,E,]2 | [A,,,E,,A,,]4 z2 | [A,,,E,,A,,]6 | [A,,,E,,A,,]6 | %31
 [A,,,E,,A,,]2 [A,,,E,,A,,]2 [A,,,E,,A,,]2 | [A,,,E,,A,,]6 | [A,,,E,,A,,]6 | [A,,,E,,A,,]6 | %35
 [A,,,E,,A,,]2 [A,,,E,,A,,]2 [A,,,E,,A,,]2 | [A,,,E,,A,,]4 z2 |] %37

